src/assets/icon/logo.svg

<svg width="40" height="36" viewBox="0 0 40 36" fill="none" xmlns="http://www.w3.org/2000/svg">
<path d="M20 0.5C30.8204 0.5 39.5 8.38327 39.5 18C39.5 27.6167 30.8204 35.5 20 35.5C9.17959 35.5 0.5 27.6167 0.5 18C0.5 8.38327 9.17959 0.5 20 0.5Z" fill="#010811" stroke="#8AB752"/>
<path opacity="0.9" d="M5.41684 23.364C4.51047 25.986 4.48915 30.6276 11.6547 28.2175L16.6131 22.3598L18.6924 24.0335C19.3855 23.5314 20.8357 22.6276 21.0916 23.0293C21.838 24.145 23.2989 26.6108 23.1709 27.5481L23.4908 28.2175L25.89 29.2217V29.5564C28.3425 29.8912 33.5354 30.3598 34.687 29.5564V28.887V28.2175C35.0069 27.8828 35.3588 26.8452 34.2072 25.3724C32.9276 24.5913 30.5604 22.9623 31.3282 22.6946L30.8483 22.3598C30.0486 21.9135 28.4491 20.5858 28.4491 18.8452L27.4895 14.8285L32.1279 21.3557H32.6077L28.4491 14.4938L29.2489 15.3306C29.5154 15.8327 30.3685 16.636 31.6481 15.8327C31.8613 15.2748 31.6801 14.0586 29.2489 13.657L26.2099 13.3222V13.657H25.89C25.1436 13.8801 23.6507 14.3599 23.6507 14.4938L22.2112 12.9875C22.851 11.537 23.9386 8.03358 23.1709 5.62356L22.6911 5.28883L22.5311 4.61938L21.7314 3.28048C21.5181 2.61103 20.4838 1.47296 18.0526 2.2763C17.3595 2.83418 15.9413 4.08382 15.8134 4.61938L14.5338 7.46455L14.3738 7.79928V8.134V8.80345V9.13818L11.9746 12.9875V13.1549L11.4948 13.4896L11.1749 13.657L11.015 13.8243V14.1591L10.855 14.3264L9.25555 15.498L7.97598 16.6695L7.49614 17.339L7.17625 17.6737L6.69641 18.6779L6.21657 19.682L6.05662 20.3515L5.41684 23.364Z" fill="#8AB752"/>
<path d="M23 13C22.7513 13.1157 22.335 13.6592 21.8769 14.1671C21.4204 14.6731 20.96 15.1787 20.585 15.7643C20.2359 16.3094 19.835 16.8151 19.4806 17.4392C19.1062 18.0986 18.6275 18.6081 18.2719 19.1925C17.9228 19.7661 17.6275 20.3613 17.2719 20.9457C17.2088 21.1023 17.1675 21.2566 17.1256 21.4132C17.0838 21.5699 17.0425 21.7242 17 22" stroke="black" stroke-width="1.5" stroke-linecap="round"/>
<path d="M20 0.5C30.8204 0.5 39.5 8.38327 39.5 18C39.5 27.6167 30.8204 35.5 20 35.5C9.17959 35.5 0.5 27.6167 0.5 18C0.5 8.38327 9.17959 0.5 20 0.5Z" stroke="#8AB752"/>
</svg>

<svg width="40" height="36" fill="none" xmlns="http://www.w3.org/2000/svg"><path opacity=".9" d="M5.417 23.364c-.907 2.622-.928 7.264 6.238 4.854l4.958-5.858 2.08 1.674c.692-.503 2.143-1.406 2.399-1.005.746 1.116 2.207 3.582 2.079 4.52l.32.669 2.399 1.004v.334c2.453.335 7.645.804 8.797 0v-1.339c.32-.334.672-1.372-.48-2.845-1.28-.78-3.647-2.41-2.879-2.677l-.48-.335c-.8-.447-2.399-1.774-2.399-3.515l-.96-4.016 4.639 6.527h.48l-4.159-6.862.8.837c.266.502 1.12 1.305 2.4.502.212-.558.031-1.774-2.4-2.176l-3.04-.335v.335h-.319c-.746.223-2.24.703-2.24.837l-1.439-1.506c.64-1.451 1.728-4.954.96-7.364l-.48-.335-.16-.67-.8-1.339c-.213-.669-1.247-1.807-3.678-1.004-.694.558-2.112 1.808-2.24 2.343l-1.28 2.846-.16.334V9.138l-2.398 3.85v.167l-.48.335-.32.167-.16.167v.335l-.16.167-1.6 1.172-1.279 1.171-.48.67-.32.335-.48 1.004-.48 1.004-.16.67-.64 3.012z" fill="#8AB752"/><path d="M23 13c-.249.116-.665.66-1.123 1.167-.457.506-.917 1.012-1.292 1.597-.35.545-.75 1.051-1.104 1.675-.375.66-.854 1.17-1.21 1.753-.348.574-.643 1.17-1 1.754-.062.156-.104.31-.145.467-.042.157-.084.311-.126.587" stroke="#000" stroke-width="1.5" stroke-linecap="round"/><path opacity=".9" d="M5.417 23.364c-.907 2.622-.928 7.264 6.238 4.854l4.958-5.858 2.08 1.674c.692-.503 2.143-1.406 2.399-1.005.746 1.116 2.207 3.582 2.079 4.52l.32.669 2.399 1.004v.334c2.453.335 7.645.804 8.797 0v-1.339c.32-.334.672-1.372-.48-2.845-1.28-.78-3.647-2.41-2.879-2.677l-.48-.335c-.8-.447-2.399-1.774-2.399-3.515l-.96-4.016 4.639 6.527h.48l-4.159-6.862.8.837c.266.502 1.12 1.305 2.4.502.212-.558.031-1.774-2.4-2.176l-3.04-.335v.335h-.319c-.746.223-2.24.703-2.24.837l-1.439-1.506c.64-1.451 1.728-4.954.96-7.364l-.48-.335-.16-.67-.8-1.339c-.213-.669-1.247-1.807-3.678-1.004-.694.558-2.112 1.808-2.24 2.343l-1.28 2.846-.16.334V9.138l-2.398 3.85v.167l-.48.335-.32.167-.16.167v.335l-.16.167-1.6 1.172-1.279 1.171-.48.67-.32.335-.48 1.004-.48 1.004-.16.67-.64 3.012z" fill="#8AB752"/><path d="M23 13c-.249.116-.665.66-1.123 1.167-.457.506-.917 1.012-1.292 1.597-.35.545-.75 1.051-1.104 1.675-.375.66-.854 1.17-1.21 1.753-.348.574-.643 1.17-1 1.754-.062.156-.104.31-.145.467-.042.157-.084.311-.126.587" stroke="#000" stroke-width="1.5" stroke-linecap="round"/><path d="M20 .5C30.82.5 39.5 8.383 39.5 18S30.82 35.5 20 35.5.5 27.617.5 18 9.18.5 20 .5z" stroke="#8AB752"/></svg>
